assets/img/img-pages/fran/analysis.svg

<svg width="84" height="84" viewBox="0 0 84 84" fill="none" xmlns="http://www.w3.org/2000/svg">
<path fill-rule="evenodd" clip-rule="evenodd" d="M42.0002 13.0903L42.8519 13.582L77.5984 33.6412L78.4271 34.1196L77.6213 34.6109L69.505 39.5598L77.7961 44.3463L78.6369 44.8317L77.8069 45.3232L59.9081 55.925L59.8682 55.9026C56.7126 59.6801 52.3237 62.0415 47.6507 62.7325L42.764 65.5536L41.9123 66.0453L41.0607 65.5536L40.1689 65.0388L39.275 66.5871L38.7834 67.4387L37.9317 66.947L35.6607 65.6358L35.4968 65.9197L34.0729 68.3859C34.0921 68.3732 34.1121 68.3607 34.133 68.3487C34.6158 68.07 35.3985 68.07 35.8813 68.3487C36.364 68.6274 36.364 69.0792 35.8813 69.3579C35.3985 69.6366 34.6158 69.6366 34.133 69.3579C33.9138 69.2314 33.7942 69.0692 33.774 68.9036L29.2686 76.7072L28.2852 78.4105L26.5819 77.4271L25.4464 76.7715L23.7431 75.7881L24.7265 74.0848L30.9547 63.2973L31.1186 63.0135L28.5636 61.5384L27.712 61.0467L28.2037 60.195L29.0973 58.6472L6.02857 45.3296L5.17691 44.8379L6.02857 44.3463L14.5723 39.414L6.39556 34.6207L5.55689 34.1291L6.40205 33.6411L41.1485 13.582L42.0002 13.0903ZM33.7902 64.942L33.7875 64.9329L32.658 64.2807L26.4298 75.0682L27.5653 75.7238L33.7902 64.942ZM29.949 57.1722L30.2929 56.5765C27.4931 53.5279 25.7642 49.698 25.2656 45.6824L16.2626 40.4048L8.58355 44.8379L29.949 57.1722ZM31.7427 57.9989L30.3987 60.3268L38.0635 64.7521L39.5206 62.2283C37.9573 61.7928 36.4229 61.1553 34.9525 60.3064C33.7859 59.6329 32.7144 58.8578 31.7427 57.9989ZM41.5332 62.6759L41.0205 63.5638L41.9123 64.0786L43.9091 62.9259C43.1166 62.8912 42.3232 62.8082 41.5332 62.6759ZM75.2519 44.8442L62.0765 52.6483C63.799 49.4751 64.5584 46.0254 64.4469 42.6441L67.8483 40.5701L75.2519 44.8442ZM75.0664 34.1461L64.2885 40.7179C63.5171 34.864 60.129 29.4212 54.6204 26.2407C45.2134 20.8096 33.1847 24.0327 27.7536 33.4397C25.9012 36.6482 25.0555 40.1617 25.1186 43.6144L8.95054 34.1366L42.0002 15.057L75.0664 34.1461ZM72.5946 51.1911C73.0773 51.4698 73.86 51.4698 74.3428 51.1911C74.8256 50.9124 74.8256 50.4606 74.3428 50.1819C73.86 49.9032 73.0773 49.9032 72.5946 50.1819C72.1118 50.4606 72.1118 50.9124 72.5946 51.1911ZM77.8393 53.2097C77.3565 53.4884 76.5738 53.4884 76.0911 53.2097C75.6083 52.931 75.6083 52.4791 76.0911 52.2004C76.5738 51.9217 77.3565 51.9217 77.8393 52.2004C78.3221 52.4791 78.3221 52.931 77.8393 53.2097ZM69.098 53.2097C69.5808 53.4884 70.3635 53.4884 70.8463 53.2097C71.3291 52.931 71.3291 52.4791 70.8463 52.2004C70.3635 51.9217 69.5808 51.9217 69.098 52.2004C68.6153 52.4791 68.6153 52.931 69.098 53.2097ZM74.3428 55.2282C73.86 55.5069 73.0773 55.5069 72.5946 55.2282C72.1118 54.9495 72.1118 54.4977 72.5946 54.2189C73.0773 53.9403 73.86 53.9403 74.3428 54.2189C74.8256 54.4977 74.8256 54.9495 74.3428 55.2282ZM65.6015 55.2282C66.0843 55.5069 66.867 55.5069 67.3498 55.2282C67.8326 54.9495 67.8326 54.4977 67.3498 54.2189C66.867 53.9402 66.0843 53.9402 65.6015 54.2189C65.1188 54.4977 65.1188 54.9495 65.6015 55.2282ZM70.8463 57.2467C70.3635 57.5254 69.5808 57.5254 69.098 57.2467C68.6153 56.968 68.6153 56.5162 69.098 56.2375C69.5808 55.9588 70.3635 55.9588 70.8463 56.2375C71.3291 56.5162 71.3291 56.968 70.8463 57.2467ZM62.105 57.2467C62.5878 57.5254 63.3705 57.5254 63.8533 57.2467C64.3361 56.968 64.3361 56.5162 63.8533 56.2375C63.3705 55.9588 62.5878 55.9588 62.105 56.2375C61.6223 56.5162 61.6223 56.968 62.105 57.2467ZM67.3498 59.2653C66.867 59.544 66.0843 59.544 65.6015 59.2653C65.1188 58.9866 65.1188 58.5347 65.6015 58.256C66.0843 57.9773 66.867 57.9773 67.3498 58.256C67.8326 58.5347 67.8326 58.9866 67.3498 59.2653ZM58.6085 59.2653C59.0913 59.544 59.874 59.544 60.3568 59.2653C60.8396 58.9866 60.8396 58.5347 60.3568 58.256C59.874 57.9773 59.0913 57.9773 58.6085 58.256C58.1258 58.5347 58.1258 58.9866 58.6085 59.2653ZM63.8533 61.2838C63.3705 61.5625 62.5878 61.5625 62.105 61.2838C61.6223 61.0051 61.6223 60.5532 62.105 60.2745C62.5878 59.9958 63.3705 59.9958 63.8533 60.2745C64.3361 60.5532 64.3361 61.0051 63.8533 61.2838ZM55.112 61.2838C55.5948 61.5625 56.3775 61.5625 56.8603 61.2838C57.3431 61.0051 57.3431 60.5532 56.8603 60.2745C56.3775 59.9958 55.5948 59.9958 55.112 60.2745C54.6293 60.5532 54.6293 61.0051 55.112 61.2838ZM60.3568 63.3023C59.874 63.581 59.0913 63.581 58.6085 63.3023C58.1258 63.0236 58.1258 62.5718 58.6085 62.2931C59.0913 62.0144 59.874 62.0144 60.3568 62.2931C60.8396 62.5718 60.8396 63.0236 60.3568 63.3023ZM51.6155 63.3023C52.0983 63.581 52.881 63.581 53.3638 63.3023C53.8466 63.0236 53.8466 62.5718 53.3638 62.2931C52.881 62.0144 52.0983 62.0144 51.6155 62.2931C51.1328 62.5718 51.1328 63.0236 51.6155 63.3023ZM56.8603 65.3209C56.3775 65.5996 55.5948 65.5996 55.112 65.3209C54.6293 65.0422 54.6293 64.5903 55.112 64.3116C55.5948 64.0329 56.3775 64.0329 56.8603 64.3116C57.3431 64.5903 57.3431 65.0422 56.8603 65.3209ZM48.119 65.3209C48.6018 65.5996 49.3845 65.5996 49.8673 65.3209C50.35 65.0422 50.35 64.5903 49.8673 64.3116C49.3845 64.0329 48.6018 64.0329 48.119 64.3116C47.6363 64.5903 47.6363 65.0422 48.119 65.3209ZM53.3638 67.3394C52.881 67.6181 52.0983 67.6181 51.6155 67.3394C51.1328 67.0607 51.1328 66.6088 51.6155 66.3301C52.0983 66.0514 52.881 66.0514 53.3638 66.3301C53.8466 66.6088 53.8466 67.0607 53.3638 67.3394ZM44.6225 67.3394C45.1053 67.6181 45.888 67.6181 46.3708 67.3394C46.8535 67.0607 46.8535 66.6088 46.3708 66.3301C45.888 66.0514 45.1053 66.0514 44.6225 66.3301C44.1398 66.6088 44.1398 67.0607 44.6225 67.3394ZM49.8673 69.3579C49.3845 69.6366 48.6018 69.6366 48.119 69.3579C47.6363 69.0792 47.6363 68.6274 48.119 68.3487C48.6018 68.07 49.3845 68.07 49.8673 68.3487C50.35 68.6274 50.35 69.0792 49.8673 69.3579ZM9.65749 51.1911C10.1403 51.4698 10.923 51.4698 11.4057 51.1911C11.8885 50.9124 11.8885 50.4606 11.4057 50.1819C10.923 49.9032 10.1403 49.9032 9.65749 50.1819C9.17473 50.4606 9.17473 50.9124 9.65749 51.1911ZM14.9022 53.2097C14.4195 53.4884 13.6368 53.4884 13.154 53.2097C12.6712 52.931 12.6712 52.4791 13.154 52.2004C13.6368 51.9217 14.4195 51.9217 14.9022 52.2004C15.385 52.4791 15.385 52.931 14.9022 53.2097ZM16.6505 55.2282C17.1333 55.5069 17.916 55.5069 18.3988 55.2282C18.8815 54.9495 18.8815 54.4976 18.3988 54.2189C17.916 53.9402 17.1333 53.9402 16.6505 54.2189C16.1677 54.4976 16.1677 54.9495 16.6505 55.2282ZM21.8953 57.2467C21.4125 57.5254 20.6298 57.5254 20.147 57.2467C19.6642 56.968 19.6642 56.5162 20.147 56.2375C20.6298 55.9588 21.4125 55.9588 21.8953 56.2375C22.378 56.5162 22.378 56.968 21.8953 57.2467ZM23.6435 59.2653C24.1263 59.544 24.909 59.544 25.3918 59.2653C25.8745 58.9866 25.8745 58.5347 25.3918 58.256C24.909 57.9773 24.1263 57.9773 23.6435 58.256C23.1607 58.5347 23.1607 58.9866 23.6435 59.2653ZM41.126 69.3579C41.6088 69.6366 42.3915 69.6366 42.8743 69.3579C43.357 69.0792 43.357 68.6274 42.8743 68.3487C42.3915 68.07 41.6088 68.07 41.126 68.3487C40.6433 68.6274 40.6433 69.0792 41.126 69.3579ZM46.3708 71.3765C45.888 71.6552 45.1053 71.6552 44.6225 71.3765C44.1398 71.0978 44.1398 70.6459 44.6225 70.3672C45.1053 70.0885 45.888 70.0885 46.3708 70.3672C46.8535 70.6459 46.8535 71.0978 46.3708 71.3765ZM6.16099 53.2097C6.64376 53.4884 7.42648 53.4884 7.90924 53.2097C8.39201 52.931 8.39201 52.4791 7.90924 52.2004C7.42648 51.9217 6.64376 51.9217 6.16099 52.2004C5.67822 52.4791 5.67822 52.931 6.16099 53.2097ZM11.4057 55.2282C10.923 55.5069 10.1403 55.5069 9.65749 55.2282C9.17473 54.9495 9.17473 54.4976 9.65749 54.2189C10.1403 53.9402 10.923 53.9402 11.4057 54.2189C11.8885 54.4976 11.8885 54.9495 11.4057 55.2282ZM13.154 57.2467C13.6368 57.5254 14.4195 57.5254 14.9022 57.2467C15.385 56.968 15.385 56.5162 14.9022 56.2375C14.4195 55.9588 13.6368 55.9588 13.154 56.2375C12.6712 56.5162 12.6712 56.968 13.154 57.2467ZM18.3988 59.2653C17.916 59.544 17.1333 59.544 16.6505 59.2653C16.1677 58.9866 16.1677 58.5347 16.6505 58.256C17.1333 57.9773 17.916 57.9773 18.3988 58.256C18.8815 58.5347 18.8815 58.9866 18.3988 59.2653ZM20.147 61.2838C20.6298 61.5625 21.4125 61.5625 21.8953 61.2838C22.378 61.0051 22.378 60.5532 21.8953 60.2745C21.4125 59.9958 20.6298 59.9958 20.147 60.2745C19.6642 60.5532 19.6642 61.0051 20.147 61.2838ZM25.3918 63.3023C24.909 63.581 24.1263 63.581 23.6435 63.3023C23.1607 63.0236 23.1607 62.5718 23.6435 62.2931C24.1263 62.0144 24.909 62.0144 25.3918 62.2931C25.8745 62.5718 25.8745 63.0236 25.3918 63.3023ZM27.14 65.3209C27.6228 65.5996 28.4055 65.5996 28.8883 65.3209C29.371 65.0422 29.371 64.5903 28.8883 64.3116C28.4055 64.0329 27.6228 64.0329 27.14 64.3116C26.6572 64.5903 26.6572 65.0422 27.14 65.3209ZM37.6295 71.3765C38.1123 71.6552 38.895 71.6552 39.3778 71.3765C39.8605 71.0978 39.8605 70.6459 39.3778 70.3672C38.895 70.0885 38.1123 70.0885 37.6295 70.3672C37.1468 70.6459 37.1468 71.0978 37.6295 71.3765ZM42.8743 73.395C42.3915 73.6737 41.6088 73.6737 41.126 73.395C40.6433 73.1163 40.6433 72.6644 41.126 72.3857C41.6088 72.107 42.3915 72.107 42.8743 72.3857C43.357 72.6644 43.357 73.1163 42.8743 73.395ZM56.1417 49.8295C52.5209 56.1008 44.5018 58.2495 38.2305 54.6288C31.9592 51.008 29.8105 42.9889 33.4312 36.7176C37.052 30.4463 45.0711 28.2976 51.3424 31.9183C55.518 34.3291 57.866 38.6898 57.9002 43.1863L55.7699 41.2691L55.0764 40.6449L54.4167 41.3046L52.0824 43.639H50.5761L48.1779 36.4443L47.2259 33.5883L46.3083 36.4555L44.2116 43.0077L42.7352 41.3467L41.7702 40.2611L41.1206 41.5602L38.77 46.2614H36.7554V48.2281H39.3778H39.9856L40.2574 47.6845L42.2302 43.7389L43.8876 45.6035L45.0335 46.8927L45.5592 45.2499L47.264 39.9222L48.9344 44.9334L49.1585 45.6058H49.8673H52.4897H52.897L53.1851 45.3177L55.1477 43.3551L57.6866 45.6401C57.4232 47.0763 56.9135 48.4926 56.1417 49.8295ZM57.845 50.8129C53.6811 58.0249 44.4591 60.4959 37.2471 56.3321C30.0351 52.1682 27.5641 42.9463 31.7279 35.7342C35.8918 28.5222 45.1138 26.0512 52.3258 30.2151C59.5378 34.3789 62.0088 43.6009 57.845 50.8129ZM35.9359 58.6031C44.4022 63.4911 55.228 60.5904 60.116 52.1241C65.004 43.6578 62.1033 32.832 53.637 27.944C45.1707 23.056 34.3449 25.9568 29.4569 34.423C24.5689 42.8893 27.4696 53.7151 35.9359 58.6031Z" fill="#1D3557"/>
</svg>

<svg width="84" height="84" fill="none" xmlns="http://www.w3.org/2000/svg"><path fill-rule="evenodd" clip-rule="evenodd" d="m42 13.09.852.492 34.746 20.06.83.478-.807.49-8.116 4.95 8.291 4.786.84.486-.83.491-17.898 10.602-.04-.022a19.657 19.657 0 0 1-12.217 6.83l-4.887 2.82-.852.492-.851-.491-.892-.515-.894 1.548-.492.852-.851-.492-2.271-1.311-.164.284-1.424 2.466.06-.037c.483-.279 1.265-.279 1.748 0 .483.278.483.73 0 1.009-.483.279-1.265.279-1.748 0-.22-.127-.339-.289-.359-.454l-4.505 7.803-.984 1.704-1.703-.984-1.136-.656-1.703-.983.984-1.703 6.228-10.788.164-.283-2.555-1.476-.852-.491.492-.852.893-1.548L6.03 45.33l-.852-.492.852-.492 8.543-4.932-8.176-4.793-.84-.492.846-.488 34.746-20.059.852-.492Zm-8.21 51.852-.002-.01-1.13-.651-6.228 10.787 1.135.656 6.225-10.782Zm-3.841-7.77.344-.595a19.703 19.703 0 0 1-5.027-10.895l-9.003-5.277-7.68 4.433L29.95 57.172Zm1.794.827-1.344 2.328 7.664 4.425 1.458-2.524a19.705 19.705 0 0 1-4.569-1.922A19.757 19.757 0 0 1 31.742 58Zm9.79 4.677-.513.888.892.515 1.997-1.153a19.566 19.566 0 0 1-2.376-.25Zm33.719-17.832-13.175 7.804a19.566 19.566 0 0 0 2.37-10.004l3.401-2.074 7.404 4.274Zm-.186-10.698-10.778 6.572c-.77-5.854-4.159-11.297-9.668-14.477-9.407-5.431-21.435-2.208-26.866 7.199a19.577 19.577 0 0 0-2.635 10.174L8.95 34.137 42 15.057l33.065 19.09Zm-2.471 17.045c.482.279 1.265.279 1.748 0 .483-.279.483-.73 0-1.01-.483-.278-1.266-.278-1.748 0-.483.28-.483.731 0 1.01Zm5.244 2.019c-.483.278-1.265.278-1.748 0-.483-.279-.483-.73 0-1.01.483-.278 1.266-.278 1.748 0 .483.28.483.731 0 1.01Zm-8.741 0c.483.278 1.266.278 1.748 0 .483-.279.483-.73 0-1.01-.483-.278-1.265-.278-1.748 0-.483.28-.483.731 0 1.01Zm5.245 2.018c-.483.279-1.266.279-1.748 0-.483-.279-.483-.73 0-1.01.482-.278 1.265-.278 1.748 0 .483.28.483.731 0 1.01Zm-8.742 0c.483.279 1.266.279 1.749 0 .483-.279.483-.73 0-1.01-.483-.278-1.266-.278-1.748 0-.483.28-.483.731 0 1.01Zm5.245 2.019c-.483.278-1.265.278-1.748 0-.483-.279-.483-.73 0-1.01.483-.278 1.266-.278 1.748 0 .483.28.483.731 0 1.01Zm-8.741 0c.483.278 1.266.278 1.748 0 .483-.279.483-.73 0-1.01-.483-.278-1.265-.278-1.748 0-.483.28-.483.731 0 1.01Zm5.245 2.018c-.483.279-1.266.279-1.748 0-.483-.278-.483-.73 0-1.009.482-.279 1.265-.279 1.748 0 .483.279.483.73 0 1.01Zm-8.741 0c.482.279 1.265.279 1.748 0 .483-.278.483-.73 0-1.009-.483-.279-1.266-.279-1.748 0-.483.279-.483.73 0 1.01Zm5.244 2.019c-.483.279-1.265.279-1.748 0-.483-.279-.483-.73 0-1.01.483-.278 1.266-.278 1.748 0 .483.28.483.731 0 1.01Zm-8.741 0c.483.279 1.265.279 1.748 0 .483-.279.483-.73 0-1.01-.483-.278-1.265-.278-1.748 0-.483.28-.483.731 0 1.01Zm5.245 2.018c-.483.279-1.266.279-1.748 0-.483-.278-.483-.73 0-1.009.482-.279 1.265-.279 1.748 0 .483.279.483.73 0 1.01Zm-8.742 0c.483.279 1.266.279 1.749 0 .483-.278.483-.73 0-1.009-.483-.279-1.266-.279-1.748 0-.483.279-.483.73 0 1.01Zm5.245 2.019c-.483.279-1.265.279-1.748 0-.483-.279-.483-.73 0-1.01.483-.278 1.265-.278 1.748 0 .483.28.483.731 0 1.01Zm-8.741 0c.483.279 1.266.279 1.748 0 .483-.279.483-.73 0-1.01-.482-.278-1.265-.278-1.748 0-.483.28-.483.731 0 1.01Zm5.245 2.018c-.483.28-1.266.28-1.748 0-.483-.278-.483-.73 0-1.009.482-.279 1.265-.279 1.748 0 .483.279.483.73 0 1.01Zm-8.741 0c.482.28 1.265.28 1.748 0 .482-.278.482-.73 0-1.009-.483-.279-1.266-.279-1.748 0-.483.279-.483.73 0 1.01Zm5.244 2.019c-.482.279-1.265.279-1.748 0-.483-.279-.483-.73 0-1.01.483-.278 1.266-.278 1.748 0 .483.28.483.731 0 1.01ZM9.657 51.19c.483.279 1.266.279 1.749 0 .482-.279.482-.73 0-1.01-.483-.278-1.266-.278-1.749 0-.482.28-.482.731 0 1.01Zm5.245 2.019c-.482.278-1.265.278-1.748 0-.483-.279-.483-.73 0-1.01.483-.278 1.265-.278 1.748 0 .483.28.483.731 0 1.01Zm1.749 2.018c.482.279 1.265.279 1.748 0 .482-.279.482-.73 0-1.01-.483-.278-1.266-.278-1.748 0-.483.28-.483.731 0 1.01Zm5.244 2.019c-.482.278-1.265.278-1.748 0-.483-.279-.483-.73 0-1.01.483-.278 1.266-.278 1.748 0 .483.28.483.731 0 1.01Zm1.748 2.018c.483.279 1.266.279 1.749 0 .483-.278.483-.73 0-1.009-.483-.279-1.266-.279-1.748 0-.483.279-.483.73 0 1.01Zm17.483 10.093c.483.279 1.266.279 1.748 0 .483-.279.483-.73 0-1.01-.483-.278-1.265-.278-1.748 0-.483.28-.483.731 0 1.01Zm5.245 2.018c-.483.28-1.266.28-1.748 0-.483-.278-.483-.73 0-1.009.482-.279 1.265-.279 1.748 0 .482.279.482.73 0 1.01ZM6.16 53.21c.483.278 1.265.278 1.748 0 .483-.279.483-.73 0-1.01-.483-.278-1.265-.278-1.748 0-.483.28-.483.731 0 1.01Zm5.245 2.018c-.483.279-1.266.279-1.749 0-.482-.279-.482-.73 0-1.01.483-.278 1.266-.278 1.749 0 .482.28.482.731 0 1.01Zm1.748 2.019c.483.278 1.265.278 1.748 0 .483-.279.483-.73 0-1.01-.482-.278-1.265-.278-1.748 0-.483.28-.483.731 0 1.01Zm5.245 2.018c-.483.279-1.266.279-1.748 0-.483-.278-.483-.73 0-1.009.482-.279 1.265-.279 1.748 0 .482.279.482.73 0 1.01Zm1.748 2.019c.483.279 1.266.279 1.748 0 .483-.279.483-.73 0-1.01-.482-.278-1.265-.278-1.748 0-.483.28-.483.731 0 1.01Zm5.245 2.018c-.483.279-1.266.279-1.748 0-.483-.278-.483-.73 0-1.009.482-.279 1.265-.279 1.748 0 .483.279.483.73 0 1.01Zm1.748 2.019c.483.279 1.265.279 1.748 0 .483-.279.483-.73 0-1.01-.483-.278-1.265-.278-1.748 0-.483.28-.483.731 0 1.01Zm10.49 6.055c.482.28 1.265.28 1.748 0 .483-.278.483-.73 0-1.009-.483-.279-1.266-.279-1.748 0-.483.279-.483.73 0 1.01Zm5.244 2.019c-.483.279-1.265.279-1.748 0-.483-.279-.483-.73 0-1.01.483-.278 1.266-.278 1.748 0 .483.28.483.731 0 1.01ZM56.142 49.83c-3.621 6.27-11.64 8.42-17.912 4.799-6.27-3.621-8.42-11.64-4.799-17.911 3.621-6.272 11.64-8.42 17.911-4.8A13.106 13.106 0 0 1 57.9 43.186l-2.13-1.917-.694-.624-.66.66-2.334 2.334h-1.506l-2.398-7.195-.952-2.856-.918 2.867-2.096 6.553-1.477-1.661-.965-1.086-.65 1.3-2.35 4.7h-2.015v1.967H39.986l.271-.544 1.973-3.945 1.658 1.864 1.145 1.29.526-1.643 1.705-5.328 1.67 5.011.224.673h3.739l.288-.288 1.963-1.963 2.539 2.285a13.09 13.09 0 0 1-1.545 4.19Zm1.703.983c-4.164 7.212-13.386 9.683-20.598 5.52-7.212-4.165-9.683-13.387-5.52-20.599 4.165-7.212 13.387-9.683 20.599-5.519s9.683 13.386 5.519 20.598Zm-21.91 7.79c8.467 4.888 19.293 1.987 24.181-6.479 4.888-8.466 1.987-19.292-6.479-24.18-8.466-4.888-19.292-1.987-24.18 6.479-4.888 8.466-1.987 19.292 6.479 24.18Z" fill="#1D3557"/></svg>
